X:2226
T:Yn Eirey Cronk yn Ollee 
C:Mary Gawne, Peel 
C:Traditional
O:Isle of Man
S:Mary Gawne, Peel 
Z:Clague collection
B:Kiaull Vannin #226 
M:2/4 
L:1/8 
K:G 
dd|c A A>A|d<d dB|cA GF|E2 FG|AF ED|D<d ^cd|ee dd|d2||

